packages/axiom-materials/src/icon_svgs/pinterest.svg

<svg height="16" viewBox="0 0 16 16" width="16" xmlns="http://www.w3.org/2000/svg"><g fill="none" fill-rule="evenodd"><path d="m7.99947541.00102951c-4.41796721 0-7.99947541 3.58150819-7.99947541 7.99947541 0 3.38898358 2.10845902 6.28354098 5.08419672 7.44911478-.06990164-.6329181-.13304918-1.6037377.02780328-2.2946886.14537705-.6243278.93803279-3.97626225.93803279-3.97626225s-.23927869-.47921311-.23927869-1.18767213c0-1.11232787.64472131-1.9427541 1.44747541-1.9427541.6824918 0 1.01213115.51239345 1.01213115 1.12681968 0 .68636065-.43698361 1.71252459-.66255738 2.6634754-.18839344.7961967.39934426 1.4455082 1.18465574 1.4455082 1.42177048 0 2.51462298-1.49914754 2.51462298-3.66314754 0-1.91534426-1.37619675-3.2544918-3.34137708-3.2544918-2.27613115 0-3.61213115 1.70721311-3.61213115 3.47154098 0 .68754098.26485246 1.42478689.59534426 1.82557377.06531148.07921312.07495082.14859017.05547541.22944262-.06072131.25265577-.19567213.79599997-.22216393.90721307-.03495082.1464263-.116.1775082-.26754099.1069509-.99914754-.4650492-1.6237377-1.92577052-1.6237377-3.09901642 0-2.52340984 1.83344262-4.84085246 5.28557377-4.84085246 2.77495081 0 4.93154101 1.97744262 4.93154101 4.62013114 0 2.75691804-1.7383607 4.97567214-4.15101642 4.97567214-.81062295 0-1.57265574-.4211148-1.8335082-.9185574 0 0-.40111475 1.5273443-.49836065 1.9016394-.18065574.6948196-.66813115 1.5657705-.99422951 2.0971147.74845902.2317377 1.54386885.3567213 2.36852459.3567213 4.41803279 0 7.99954099-3.5815082 7.99954099-7.99947538 0-4.41796722-3.5815082-7.99947541-7.99954099-7.99947541" fill="#a8242f"/><path d="m5.08419672 15.4496197c-.06990164-.6329181-.13304918-1.6037377.02780328-2.2946886.14537705-.6243278.93803279-3.97626225.93803279-3.97626225s-.23927869-.47921311-.23927869-1.18767213c0-1.11232787.64472131-1.9427541 1.44747541-1.9427541.6824918 0 1.01213115.51239345 1.01213115 1.12681968 0 .68636065-.43698361 1.71252459-.66255738 2.6634754-.18839344.7961967.39934426 1.4455082 1.18465574 1.4455082 1.42177048 0 2.51462298-1.49914754 2.51462298-3.66314754 0-1.91534426-1.37619675-3.2544918-3.34137708-3.2544918-2.27613115 0-3.61213115 1.70721311-3.61213115 3.47154098 0 .68754098.26485246 1.42478689.59534426 1.82557377.06531148.07921312.07495082.14859017.05547541.22944262-.06072131.25265577-.19567213.79599997-.22216393.90721307-.03495082.1464263-.116.1775082-.26754099.1069509-.99914754-.4650492-1.6237377-1.92577052-1.6237377-3.09901642 0-2.52340984 1.83344262-4.84085246 5.28557377-4.84085246 2.77495081 0 4.93154101 1.97744262 4.93154101 4.62013114 0 2.75691804-1.7383607 4.97567214-4.15101642 4.97567214-.81062295 0-1.57265574-.4211148-1.8335082-.9185574 0 0-.40111475 1.5273443-.49836065 1.9016394-.18065574.6948196-.66813115 1.5657705-.99422951 2.0971147-.19149773-.0445315-.3737491-.1090779-.5467541-.1936393z" fill="#fff"/></g></svg>

<?xml version="1.0" encoding="UTF-8"?>
<svg width="16px" height="16px" viewBox="0 0 16 16" version="1.1" xmlns="http://www.w3.org/2000/svg" xmlns:xlink="http://www.w3.org/1999/xlink">
    <!-- Generator: Sketch 50.2 (55047) - http://www.bohemiancoding.com/sketch -->
    <title>pinterest</title>
    <desc>Created with Sketch.</desc>
    <defs></defs>
    <g id="pinterest" stroke="none" stroke-width="1" fill="none" fill-rule="evenodd">
        <g>
            <path d="M7.99947541,0.0010295082 C3.5815082,0.0010295082 0,3.5825377 0,8.00050492 C0,11.3894885 2.10845902,14.2840459 5.08419672,15.4496197 C5.01429508,14.8167016 4.95114754,13.845882 5.112,13.1549311 C5.25737705,12.5306033 6.05003279,9.17866885 6.05003279,9.17866885 C6.05003279,9.17866885 5.8107541,8.69945574 5.8107541,7.99099672 C5.8107541,6.87866885 6.45547541,6.04824262 7.25822951,6.04824262 C7.94072131,6.04824262 8.27036066,6.56063607 8.27036066,7.1750623 C8.27036066,7.86142295 7.83337705,8.88758689 7.60780328,9.8385377 C7.41940984,10.6347344 8.00714754,11.2840459 8.79245902,11.2840459 C10.2142295,11.2840459 11.307082,9.78489836 11.307082,7.62089836 C11.307082,5.7055541 9.93088525,4.36640656 7.96570492,4.36640656 C5.68957377,4.36640656 4.35357377,6.07361967 4.35357377,7.83794754 C4.35357377,8.52548852 4.61842623,9.26273443 4.94891803,9.66352131 C5.01422951,9.74273443 5.02386885,9.81211148 5.00439344,9.89296393 C4.94367213,10.1456197 4.80872131,10.6889639 4.78222951,10.800177 C4.74727869,10.9466033 4.66622951,10.9776852 4.51468852,10.9071279 C3.51554098,10.4420787 2.89095082,8.98135738 2.89095082,7.80811148 C2.89095082,5.28470164 4.72439344,2.96725902 8.17652459,2.96725902 C10.9514754,2.96725902 13.1080656,4.94470164 13.1080656,7.58739016 C13.1080656,10.3443082 11.3697049,12.5630623 8.95704918,12.5630623 C8.14642623,12.5630623 7.38439344,12.1419475 7.12354098,11.6445049 C7.12354098,11.6445049 6.72242623,13.1718492 6.62518033,13.5461443 C6.44452459,14.2409639 5.95704918,15.1119148 5.63095082,15.643259 C6.37940984,15.8749967 7.17481967,15.9999803 7.99947541,15.9999803 C12.4175082,15.9999803 15.9990164,12.4184721 15.9990164,8.00050492 C15.9990164,3.5825377 12.4175082,0.0010295082 7.99947541,0.0010295082" id="background" fill="#A8242F"></path>
            <path d="M5.08419672,15.4496197 C5.01429508,14.8167016 4.95114754,13.845882 5.112,13.1549311 C5.25737705,12.5306033 6.05003279,9.17866885 6.05003279,9.17866885 C6.05003279,9.17866885 5.8107541,8.69945574 5.8107541,7.99099672 C5.8107541,6.87866885 6.45547541,6.04824262 7.25822951,6.04824262 C7.94072131,6.04824262 8.27036066,6.56063607 8.27036066,7.1750623 C8.27036066,7.86142295 7.83337705,8.88758689 7.60780328,9.8385377 C7.41940984,10.6347344 8.00714754,11.2840459 8.79245902,11.2840459 C10.2142295,11.2840459 11.307082,9.78489836 11.307082,7.62089836 C11.307082,5.7055541 9.93088525,4.36640656 7.96570492,4.36640656 C5.68957377,4.36640656 4.35357377,6.07361967 4.35357377,7.83794754 C4.35357377,8.52548852 4.61842623,9.26273443 4.94891803,9.66352131 C5.01422951,9.74273443 5.02386885,9.81211148 5.00439344,9.89296393 C4.94367213,10.1456197 4.80872131,10.6889639 4.78222951,10.800177 C4.74727869,10.9466033 4.66622951,10.9776852 4.51468852,10.9071279 C3.51554098,10.4420787 2.89095082,8.98135738 2.89095082,7.80811148 C2.89095082,5.28470164 4.72439344,2.96725902 8.17652459,2.96725902 C10.9514754,2.96725902 13.1080656,4.94470164 13.1080656,7.58739016 C13.1080656,10.3443082 11.3697049,12.5630623 8.95704918,12.5630623 C8.14642623,12.5630623 7.38439344,12.1419475 7.12354098,11.6445049 C7.12354098,11.6445049 6.72242623,13.1718492 6.62518033,13.5461443 C6.44452459,14.2409639 5.95704918,15.1119148 5.63095082,15.643259 C5.43945309,15.5987275 5.25720172,15.5341811 5.08419672,15.4496197 Z" id="p" fill="#FFFFFF"></path>
        </g>
    </g>
</svg>
